fa/bore-hole.svg

<svg xmlns="http://www.w3.org/2000/svg" viewBox="0 0 512 512" height="1em" width="1em">
  <path d="M256 0c17.7 0 32 14.33 32 32v264.6c19.1 11 32 31.7 32 55.4 0 35.3-28.7 64-64 64s-64-28.7-64-64c0-23.7 12.9-44.4 32-55.4V32c0-17.67 14.3-32 32-32zm-96 128v224c0 53 42.1 96 96 96 53 0 96-43 96-96V128h112c26.5 0 48 21.5 48 48v288c0 26.5-21.5 48-48 48H48c-26.51 0-48-21.5-48-48V176c0-26.5 21.49-48 48-48h112z"/>
</svg>

<svg xmlns="http://www.w3.org/2000/svg" viewBox="0 0 512 512" height="1em" width="1em">
  <path d="M256 0C273.7 0 288 14.33 288 32V296.6C307.1 307.6 320 328.3 320 352C320 387.3 291.3 416 256 416C220.7 416 192 387.3 192 352C192 328.3 204.9 307.6 224 296.6V32C224 14.33 238.3 0 256 0zM160 128V352C160 405 202.1 448 256 448C309 448 352 405 352 352V128H464C490.5 128 512 149.5 512 176V464C512 490.5 490.5 512 464 512H48C21.49 512 0 490.5 0 464V176C0 149.5 21.49 128 48 128H160z"/>
</svg>
